X: 15763
T: Good For The Tongue
R: hornpipe
M: 4/4
K: Amajor
|:(3GFE|A>Bc>d e>AG>A|f>Ag>A a>AG>A|F>dE>c D>dG>A|B>cd>B A>GF>E|
A2 (3Bcd e>A (3AAA|f>Ag>A a>A (3AAA|F>dE>c D>d (3FGA|cBAG A2:|
|:c>d|e>A (3AAA f>A (3AAA|a>g (3agf e>cA>c|d>ef>e d>c (3cBA|G>e^d>e (3=dcB G>E|
A>E (3Bcd e2 (3AGA|f>Ag>A a>A (3AAA|F>dE>c D>dG>A|c>B (3BAG A2:|

